X: 1712
T: Mildura Waltz
C:B.P. Perry, published 1973
B: australian traditional tunes wiki
M:3/4
L:1/8
R: Waltz
Q: 1/4=100
K:F
V:1 
CC|:"F"[C4F4A4][F2A2]|[F2A2][E2G2][D2F2]|"C"[E2.c2]z2[C2E2]|[C4E4]CC|"Gm"[D4G4B4][D2G2B2]|[D2B2][E2c2][F2d2]|"F"[F6c6-]|[F4c4]cc|
"Bb"[F4d4][F2d2]|[D4B4][F2d2]|"Am"[E4c4][E2A2]|[E4G4]F2|"G"[E4G4][E2G2]|"G7"[F4A4]F2|"C"[E6c6]|[E4c4]C2|
"F"[F4A4][F2A2]|[F2A2][E2G2][D2F2]|"C" [E2.c2]z2E2|[C4E4]CC|"Gm"[D4B4][D2B2]|[D2B2][E2c2][F2d2]|"F"[F6c6]|[F4c4]c2|
"Bb"[F4d4][D2B2]|[B4f4][Fd][Fd]|"Am"[E4A4c4][E2A2]|"Bb"[D4F4]D2|"F"C4[C2F2] |"C"[F4A4][E2G2]|"F"F6-|F4CC:|
% abcbook-tune_id 6342d53a8a8ed3c04c5525cc


% abcbook-boost 0
% abcbook-tablature 
% abcbook-transpose 
% abcbook-lastupdated 1665324379473
% abcbook-soundfonts 
% abcbook-repeats 1
% NFF Book 2017

